;FLAVOR:Marlin
;TIME:3697
;Filament used: 3.95705m
;Layer height: 0.3
;MINX:72.8
;MINY:76.3
;MINZ:0.3
;MAXX:127.2
;MAXY:123.7
;MAXZ:24.5
;Generated with Cura_SteamEngine mb-master-20191116
M140 S70
M105
M190 S70
M104 S220
M105
M109 S220
M82 ;absolute extrusion mode
;Sliced at: Thu 11-04-2024 20:21:05
G21 ;metric values
M107
G28
M420 S1
G90 ;absolute positioning
G92 E0; reset extruder distance
G1 X0 Y0 Z5 F5000 ;move nozzle up 5mm for safe homing
G29;ABL
M500
M82 ;set extruder to absolute mode
M107 ;start with the fan off
G1 X0 Y0 Z15.0 F5000 ;move the platform down 15mm
G92 E0 ;zero the extruded length
G1 F200 E3 ;extrude 3mm of feed stock
G1 F200 E0 ;Retract
G4 S2 ;Wait for material to fall
G1 F200 E3
G92 E0 ;zero the extruded length again
M117 Printing...
G92 E0
;WIPE
G91
G1 X -20 F3000
G1 X40
G1 X-20
G90

G92 E0
G1 F2400 E-1
;LAYER_COUNT:80
;LAYER:0
M107
G1 F600 Z0.8
G0 F4800 X74.152 Y77.194 Z0.8
;TYPE:SKIRT
G1 F600 Z0.3
G1 F2400 E0.02495
G1 F960 X74.598 Y76.87 E0.0497
G1 X75.086 Y76.615 E0.07442
G1 X75.606 Y76.432 E0.09917
G1 X76.147 Y76.327 E0.12392
G1 X76.6 Y76.3 E0.14429
G1 X123.4 Y76.3 E2.24567
G1 X123.95 Y76.34 E2.27043
G1 X124.488 Y76.459 E2.29517
G1 X125.003 Y76.655 E2.31991
G1 X125.484 Y76.923 E2.34464
G1 X125.922 Y77.257 E2.36937
G1 X126.306 Y77.652 E2.3941
G1 X126.63 Y78.098 E2.41886
G1 X126.885 Y78.586 E2.44358
G1 X127.068 Y79.106 E2.46833
G1 X127.173 Y79.647 E2.49308
G1 X127.2 Y80.1 E2.51345
G1 X127.2 Y119.9 E4.30052
G1 X127.16 Y120.45 E4.32528
G1 X127.041 Y120.988 E4.35002
G1 X126.845 Y121.503 E4.37476
G1 X126.577 Y121.984 E4.39949
G1 X126.243 Y122.422 E4.42422
G1 X125.848 Y122.806 E4.44896
G1 X125.402 Y123.13 E4.47371
G1 X124.914 Y123.385 E4.49843
G1 X124.394 Y123.568 E4.52318
G1 X123.853 Y123.673 E4.54793
G1 X123.4 Y123.7 E4.5683
G1 X76.6 Y123.7 E6.66968
G1 X76.05 Y123.66 E6.69444
G1 X75.512 Y123.541 E6.71918
G1 X74.997 Y123.345 E6.74392
G1 X74.516 Y123.077 E6.76865
G1 X74.078 Y122.743 E6.79338
G1 X73.694 Y122.348 E6.81812
G1 X73.37 Y121.902 E6.84287
G1 X73.115 Y121.414 E6.86759
G1 X72.932 Y120.894 E6.89234
G1 X72.827 Y120.353 E6.91709
G1 X72.8 Y119.9 E6.93746
G1 X72.8 Y80.1 E8.72453
G1 X72.84 Y79.55 E8.74929
G1 X72.959 Y79.012 E8.77403
G1 X73.155 Y78.497 E8.79877
G1 X73.423 Y78.016 E8.8235
G1 X73.757 Y77.578 E8.84823
G1 X74.152 Y77.194 E8.87297
G0 F4800 X74.542 Y77.394
G1 F960 X74.98 Y77.111 E8.89638
G1 X75.455 Y76.898 E8.91976
G1 X75.958 Y76.761 E8.94316
G1 X76.6 Y76.7 E8.97212
G1 X123.4 Y76.7 E11.0735
G1 X123.92 Y76.74 E11.09691
G1 X124.427 Y76.859 E11.1203
G1 X124.91 Y77.054 E11.14368
G1 X125.358 Y77.32 E11.16708
G1 X125.76 Y77.652 E11.19049
G1 X126.106 Y78.042 E11.2139
G1 X126.389 Y78.48 E11.23731
G1 X126.602 Y78.955 E11.26069
G1 X126.739 Y79.458 E11.2841
G1 X126.8 Y80.1 E11.31305
G1 X126.8 Y119.9 E13.10012
G1 X126.76 Y120.42 E13.12354
G1 X126.641 Y120.927 E13.14692
G1 X126.446 Y121.41 E13.17031
G1 X126.18 Y121.858 E13.1937
G1 X125.848 Y122.26 E13.21711
G1 X125.458 Y122.606 E13.24052
G1 X125.02 Y122.889 E13.26394
G1 X124.545 Y123.102 E13.28731
G1 X124.042 Y123.239 E13.31072
G1 X123.4 Y123.3 E13.33968
G1 X76.6 Y123.3 E15.44105
G1 X76.08 Y123.26 E15.46447
G1 X75.573 Y123.141 E15.48785
G1 X75.09 Y122.946 E15.51124
G1 X74.642 Y122.68 E15.53463
G1 X74.24 Y122.348 E15.55804
G1 X73.894 Y121.958 E15.58145
G1 X73.611 Y121.52 E15.60487
G1 X73.398 Y121.045 E15.62824
G1 X73.261 Y120.542 E15.65165
G1 X73.2 Y119.9 E15.68061
G1 X73.2 Y80.1 E17.46768
G1 X73.24 Y79.58 E17.49109
G1 X73.359 Y79.073 E17.51448
G1 X73.554 Y78.59 E17.53786
G1 X73.82 Y78.142 E17.56126
G1 X74.152 Y77.74 E17.58467
G1 X74.542 Y77.394 E17.60808
G0 F4800 X74.546 Y77.913
G1 F960 X74.929 Y77.608 E17.63006
G1 X75.357 Y77.37 E17.65205
G1 X75.817 Y77.204 E17.67401
G1 X76.298 Y77.115 E17.69597
G1 X76.6 Y77.1 E17.70955
G1 X123.4 Y77.1 E19.81093
G1 X123.888 Y77.14 E19.83291
G1 X124.363 Y77.259 E19.8549
G1 X124.812 Y77.453 E19.87686
G1 X125.224 Y77.718 E19.89886
G1 X125.587 Y78.046 E19.92082
G1 X125.892 Y78.429 E19.94281
G1 X126.13 Y78.857 E19.9648
G1 X126.296 Y79.317 E19.98675
G1 X126.385 Y79.798 E20.00872
G1 X126.4 Y80.1 E20.0223
G1 X126.4 Y119.9 E21.80936
G1 X126.36 Y120.388 E21.83135
G1 X126.241 Y120.863 E21.85334
G1 X126.047 Y121.312 E21.8753
G1 X125.782 Y121.724 E21.89729
G1 X125.454 Y122.087 E21.91926
G1 X125.071 Y122.392 E21.94124
G1 X124.643 Y122.63 E21.96323
G1 X124.183 Y122.796 E21.98519
G1 X123.702 Y122.885 E22.00716
G1 X123.4 Y122.9 E22.02073
G1 X76.6 Y122.9 E24.12211
G1 X76.112 Y122.86 E24.14409
G1 X75.637 Y122.741 E24.16608
G1 X75.188 Y122.547 E24.18804
G1 X74.776 Y122.282 E24.21004
G1 X74.413 Y121.954 E24.232
G1 X74.108 Y121.571 E24.25399
G1 X73.87 Y121.143 E24.27598
G1 X73.704 Y120.683 E24.29794
G1 X73.615 Y120.202 E24.3199
G1 X73.6 Y119.9 E24.33348
G1 X73.6 Y80.1 E26.12054
G1 X73.64 Y79.612 E26.14253
G1 X73.759 Y79.137 E26.16452
G1 X73.953 Y78.688 E26.18648
G1 X74.218 Y78.276 E26.20847
G1 X74.546 Y77.913 E26.23044
G0 F4800 X74.938 Y78.1
G1 F960 X75.313 Y77.841 E26.25091
G1 X75.727 Y77.651 E26.27136
G1 X76.168 Y77.536 E26.29182
G1 X76.6 Y77.5 E26.31129
G1 X123.4 Y77.5 E28.41266
G1 X123.854 Y77.54 E28.43313
G1 X124.294 Y77.658 E28.45358
G1 X124.706 Y77.852 E28.47403
G1 X125.079 Y78.115 E28.49452
G1 X125.4 Y78.438 E28.51497
G1 X125.659 Y78.813 E28.53543
G1 X125.849 Y79.227 E28.55588
G1 X125.964 Y79.668 E28.57635
G1 X126 Y80.1 E28.59581
G1 X126 Y119.9 E30.38288
G1 X125.96 Y120.354 E30.40334
G1 X125.842 Y120.794 E30.4238
G1 X125.648 Y121.206 E30.44425
G1 X125.385 Y121.579 E30.46474
G1 X125.062 Y121.9 E30.48519
G1 X124.687 Y122.159 E30.50565
G1 X124.273 Y122.349 E30.5261
G1 X123.832 Y122.464 E30.54657
G1 X123.4 Y122.5 E30.56603
G1 X76.6 Y122.5 E32.66741
G1 X76.146 Y122.46 E32.68787
G1 X75.706 Y122.342 E32.70833
G1 X75.294 Y122.148 E32.72877
G1 X74.921 Y121.885 E32.74927
G1 X74.6 Y121.562 E32.76971
G1 X74.341 Y121.187 E32.79018
G1 X74.151 Y120.773 E32.81063
G1 X74.036 Y120.332 E32.83109
G1 X74 Y119.9 E32.85056
G1 X74 Y80.1 E34.63762
G1 X74.04 Y79.646 E34.65809
G1 X74.158 Y79.206 E34.67854
G1 X74.352 Y78.794 E34.69899
G1 X74.615 Y78.421 E34.71948
G1 X74.938 Y78.1 E34.73993
G0 F4800 X75.327 Y78.306
G1 F960 X75.69 Y78.097 E34.75874
G1 X76.087 Y77.961 E34.77758
G1 X76.6 Y77.9 E34.80078
G1 X123.4 Y77.9 E36.90215
G1 X123.817 Y77.94 E36.92096
G1 X124.219 Y78.058 E36.93977
G1 X124.591 Y78.251 E36.95859
G1 X124.92 Y78.51 E36.97739
G1 X125.194 Y78.827 E36.99621
G1 X125.403 Y79.19 E37.01501
G1 X125.539 Y79.587 E37.03386
G1 X125.6 Y80.1 E37.05705
G1 X125.6 Y119.9 E38.84412
G1 X125.56 Y120.317 E38.86293
G1 X125.442 Y120.719 E38.88174
G1 X125.249 Y121.091 E38.90056
G1 X124.99 Y121.42 E38.91936
G1 X124.673 Y121.694 E38.93817
G1 X124.31 Y121.903 E38.95698
G1 X123.913 Y122.039 E38.97582
G1 X123.4 Y122.1 E38.99902
G1 X76.6 Y122.1 E41.1004
G1 X76.183 Y122.06 E41.11921
G1 X75.781 Y121.942 E41.13802
G1 X75.409 Y121.749 E41.15684
G1 X75.08 Y121.49 E41.17564
G1 X74.806 Y121.173 E41.19445
G1 X74.597 Y120.81 E41.21326
G1 X74.461 Y120.413 E41.2321
G1 X74.4 Y119.9 E41.2553
G1 X74.4 Y80.1 E43.04236
G1 X74.44 Y79.683 E43.06117
G1 X74.558 Y79.281 E43.07999
G1 X74.751 Y78.909 E43.0988
G1 X75.01 Y78.58 E43.1176
G1 X75.327 Y78.306 E43.13642
G0 F4800 X75.403 Y78.755
G1 F960 X75.712 Y78.535 E43.15345
G1 X76.059 Y78.383 E43.17046
G1 X76.6 Y78.3 E43.19504
G1 X123.4 Y78.3 E45.29641
G1 X123.777 Y78.34 E45.31343
G1 X124.137 Y78.458 E45.33044
G1 X124.464 Y78.648 E45.34743
G1 X124.745 Y78.903 E45.36446
G1 X124.965 Y79.212 E45.3815
G1 X125.117 Y79.559 E45.39851
G1 X125.2 Y80.1 E45.42308
G1 X125.2 Y119.9 E47.21015
G1 X125.16 Y120.277 E47.22717
G1 X125.042 Y120.637 E47.24418
G1 X124.852 Y120.964 E47.26116
G1 X124.597 Y121.245 E47.2782
G1 X124.288 Y121.465 E47.29523
G1 X123.941 Y121.617 E47.31224
G1 X123.4 Y121.7 E47.33682
G1 X76.6 Y121.7 E49.43819
G1 X76.223 Y121.66 E49.45522
G1 X75.863 Y121.542 E49.47223
G1 X75.536 Y121.352 E49.48921
G1 X75.255 Y121.097 E49.50625
G1 X75.035 Y120.788 E49.52328
G1 X74.883 Y120.441 E49.54029
G1 X74.8 Y119.9 E49.56486
G1 X74.8 Y80.1 E51.35193
G1 X74.84 Y79.723 E51.36895
G1 X74.958 Y79.363 E51.38596
G1 X75.148 Y79.036 E51.40295
G1 X75.403 Y78.755 E51.41998
G0 F4800 X75.793 Y78.956
G1 F960 X76.087 Y78.797 E51.43499
G1 X76.411 Y78.713 E51.45002
G1 X76.6 Y78.7 E51.45853
G1 X123.4 Y78.7 E53.5599
G1 X123.732 Y78.74 E53.57492
G1 X124.044 Y78.857 E53.58988
G1 X124.321 Y79.045 E53.60491
G1 X124.544 Y79.293 E53.61989
G1 X124.703 Y79.587 E53.63489
G1 X124.787 Y79.911 E53.64992
G1 X124.8 Y80.1 E53.65843
G1 X124.8 Y119.9 E55.4455
G1 X124.76 Y120.232 E55.46051
G1 X124.643 Y120.544 E55.47547
G1 X124.455 Y120.821 E55.4905
G1 X124.207 Y121.044 E55.50548
G1 X123.913 Y121.203 E55.52049
G1 X123.589 Y121.287 E55.53552
G1 X123.4 Y121.3 E55.54402
G1 X76.6 Y121.3 E57.6454
G1 X76.268 Y121.26 E57.66041
G1 X75.956 Y121.143 E57.67537
G1 X75.679 Y120.955 E57.69041
G1 X75.456 Y120.707 E57.70538
G1 X75.297 Y120.413 E57.72039
G1 X75.213 Y120.089 E57.73542
G1 X75.2 Y119.9 E57.74392
G1 X75.2 Y80.1 E59.53099
G1 X75.24 Y79.768 E59.54601
G1 X75.357 Y79.456 E59.56097
G1 X75.545 Y79.179 E59.576
G1 X75.793 Y78.956 E59.59098
G0 F4800 X75.939 Y79.349
G1 F960 X76.175 Y79.195 E59.60363
G1 X76.445 Y79.112 E59.61631
G1 X76.6 Y79.1 E59.62329
G1 X123.4 Y79.1 E61.72467
G1 X123.679 Y79.14 E61.73732
G1 X123.936 Y79.256 E61.74998
G1 X124.151 Y79.439 E61.76266
G1 X124.305 Y79.675 E61.77531
G1 X124.388 Y79.945 E61.788
G1 X124.4 Y80.1 E61.79498
G1 X124.4 Y119.9 E63.58205
G1 X124.36 Y120.179 E63.5947
G1 X124.244 Y120.436 E63.60736
G1 X124.061 Y120.651 E63.62004
G1 X123.825 Y120.805 E63.63269
G1 X123.555 Y120.888 E63.64537
G1 X123.4 Y120.9 E63.65236
G1 X76.6 Y120.9 E65.75373
G1 X76.321 Y120.86 E65.76639
G1 X76.064 Y120.744 E65.77905
G1 X75.849 Y120.561 E65.79172
G1 X75.695 Y120.325 E65.80438
G1 X75.612 Y120.055 E65.81706
G1 X75.6 Y119.9 E65.82404
G1 X75.6 Y80.1 E67.61111
G1 X75.64 Y79.821 E67.62376
G1 X75.756 Y79.564 E67.63642
G1 X75.939 Y79.349 E67.6491
G0 F4800 X76.153 Y79.699
G1 F960 X76.326 Y79.566 E67.6589
G1 X76.6 Y79.5 E67.67155
G1 X123.4 Y79.5 E69.77293
G1 X123.615 Y79.54 E69.78275
G1 X123.801 Y79.653 E69.79252
G1 X123.934 Y79.826 E69.80232
G1 X124 Y80.1 E69.81497
G1 X124 Y119.9 E71.60204
G1 X123.96 Y120.115 E71.61186
G1 X123.847 Y120.301 E71.62163
G1 X123.674 Y120.434 E71.63143
G1 X123.4 Y120.5 E71.64409
G1 X76.6 Y120.5 E73.74546
G1 X76.385 Y120.46 E73.75528
G1 X76.199 Y120.347 E73.76505
G1 X76.066 Y120.174 E73.77485
G1 X76 Y119.9 E73.78751
G1 X76 Y80.1 E75.57457
G1 X76.04 Y79.885 E75.58439
G1 X76.153 Y79.699 E75.59416
G0 F4800 X76.439 Y79.981
G1 F960 X76.6 Y79.9 E75.60226
G1 X123.4 Y79.9 E77.70363
G1 X123.519 Y79.939 E77.70925
G1 X123.6 Y80.1 E77.71735
G1 X123.6 Y119.9 E79.50441
G1 X123.561 Y120.019 E79.51004
G1 X123.4 Y120.1 E79.51813
G1 X76.6 Y120.1 E81.6195
G1 X76.481 Y120.061 E81.62513
G1 X76.4 Y119.9 E81.63322
G1 X76.4 Y80.1 E83.42029
G1 X76.439 Y79.981 E83.42591
;MESH:arm-rest.STL
G0 F4800 X76.8 Y80.3
;TYPE:WALL-OUTER
G1 F960 X123.2 Y80.3 E85.50932
G1 X123.2 Y119.7 E87.27843
G1 X76.8 Y119.7 E89.36185
G1 X76.8 Y80.3 E91.13095
G0 F4800 X77 Y80.3
G0 X77.24 Y80.74
G0 X77.2 Y80.7
;TYPE:WALL-INNER
G1 F960 X122.8 Y80.7 E93.17845
G1 X122.8 Y119.3 E94.91163
G1 X77.2 Y119.3 E96.95913
G1 X77.2 Y80.7 E98.69231
G0 F4800 X77.6 Y81.1
G1 F960 X122.4 Y81.1 E100.70388
G1 X122.4 Y118.9 E102.40115
G1 X77.6 Y118.9 E104.41272
G1 X77.6 Y81.1 E106.10999
G0 F4800 X78 Y81.5
G1 F960 X122 Y81.5 E108.08564
G1 X122 Y118.5 E109.74698
G1 X78 Y118.5 E111.72264
G1 X78 Y81.5 E113.38398
G0 F4800 X78.4 Y81.9
G1 F960 X121.6 Y81.9 E115.32371
G1 X121.6 Y118.1 E116.94913
G1 X78.4 Y118.1 E118.88886
G1 X78.4 Y81.9 E120.51429
G0 F4800 X78.79 Y82.29
;TYPE:SKIN
G1 F960 X121.21 Y82.29 E122.41899
G1 X121.21 Y117.71 E124.00939
G1 X78.79 Y117.71 E125.9141
G1 X78.79 Y82.29 E127.5045
G0 F4800 X79.19 Y82.69
G1 F960 X120.81 Y82.69 E129.37329
G1 X120.81 Y117.31 E130.92777
G1 X79.19 Y117.31 E132.79656
G1 X79.19 Y82.69 E134.35103
G1 F2400 E133.35103
G1 F600 Z0.8
G0 F4800 X79.348 Y117.249 Z0.8
G1 F600 Z0.3
G1 F2400 E134.37598
G1 F960 X79.249 Y117.15 E134.38227
G0 F4800 X79.249 Y116.584
G1 F960 X79.914 Y117.249 E134.42449
G0 F4800 X80.48 Y117.249
G1 F960 X79.249 Y116.019 E134.50263
G0 F4800 X79.249 Y115.453
G1 F960 X81.045 Y117.249 E134.61668
G0 F4800 X81.611 Y117.249
G1 F960 X79.249 Y114.887 E134.76666
G0 F4800 X79.249 Y114.322
G1 F960 X82.177 Y117.249 E134.95256
G0 F4800 X82.742 Y117.249
G1 F960 X79.249 Y113.756 E135.17436
G0 F4800 X79.249 Y113.19
G1 F960 X83.308 Y117.249 E135.43211
G0 F4800 X83.874 Y117.249
G1 F960 X79.249 Y112.625 E135.72576
G0 F4800 X79.249 Y112.059
G1 F960 X84.439 Y117.249 E136.05533
G0 F4800 X85.005 Y117.249
G1 F960 X79.249 Y111.493 E136.42083
G0 F4800 X79.249 Y110.928
G1 F960 X85.571 Y117.249 E136.82225
G0 F4800 X86.136 Y117.249
G1 F960 X79.249 Y110.362 E137.25957
G0 F4800 X79.249 Y109.796
G1 F960 X86.702 Y117.249 E137.73284
G0 F4800 X87.268 Y117.249
G1 F960 X79.249 Y109.231 E138.24201
G0 F4800 X79.249 Y108.665
G1 F960 X87.833 Y117.249 E138.78709
G0 F4800 X88.399 Y117.249
G1 F960 X79.249 Y108.099 E139.36812
G0 F4800 X79.249 Y107.533
G1 F960 X88.965 Y117.249 E139.98508
G0 F4800 X89.531 Y117.249
G1 F960 X79.249 Y106.968 E140.63796
G0 F4800 X79.249 Y106.402
G1 F960 X90.096 Y117.249 E141.32674
G0 F4800 X90.662 Y117.249
G1 F960 X79.249 Y105.836 E142.05146
G0 F4800 X79.249 Y105.271
G1 F960 X91.228 Y117.249 E142.8121
G0 F4800 X91.793 Y117.249
G1 F960 X79.249 Y104.705 E143.60864
G0 F4800 X79.249 Y104.139
G1 F960 X92.359 Y117.249 E144.44112
G0 F4800 X92.925 Y117.249
G1 F960 X79.249 Y103.574 E145.30951
G0 F4800 X79.249 Y103.008
G1 F960 X93.49 Y117.249 E146.21381
G0 F4800 X94.056 Y117.249
G1 F960 X79.249 Y102.442 E147.15406
G0 F4800 X79.249 Y101.877
G1 F960 X94.622 Y117.249 E148.13021
G0 F4800 X95.187 Y117.249
G1 F960 X79.249 Y101.311 E149.14227
G0 F4800 X79.249 Y100.745
G1 F960 X95.753 Y117.249 E150.19027
G0 F4800 X96.319 Y117.249
G1 F960 X79.249 Y100.18 E151.27418
G0 F4800 X79.249 Y99.614
G1 F960 X96.884 Y117.249 E152.394
G0 F4800 X97.45 Y117.249
G1 F960 X79.249 Y99.048 E153.54976
G0 F4800 X79.249 Y98.483
G1 F960 X98.016 Y117.249 E154.74143
G0 F4800 X98.581 Y117.249
G1 F960 X79.249 Y97.917 E155.96901
G0 F4800 X79.249 Y97.351
G1 F960 X99.147 Y117.249 E157.23253
G0 F4800 X99.713 Y117.249
G1 F960 X79.249 Y96.785 E158.53199
G0 F4800 X79.249 Y96.22
G1 F960 X100.279 Y117.249 E159.86736
G0 F4800 X100.844 Y117.249
G1 F960 X79.249 Y95.654 E161.23864
G0 F4800 X79.249 Y95.088
G1 F960 X101.41 Y117.249 E162.64586
G0 F4800 X101.976 Y117.249
G1 F960 X79.249 Y94.523 E164.08899
G0 F4800 X79.249 Y93.957
G1 F960 X102.541 Y117.249 E165.56803
G0 F4800 X103.107 Y117.249
G1 F960 X79.249 Y93.391 E167.08301
G0 F4800 X79.249 Y92.826
G1 F960 X103.673 Y117.249 E168.6339
G0 F4800 X104.238 Y117.249
G1 F960 X79.249 Y92.26 E170.2207
G0 F4800 X79.249 Y91.694
G1 F960 X104.804 Y117.249 E171.84344
G0 F4800 X105.37 Y117.249
G1 F960 X79.249 Y91.129 E173.50209
G0 F4800 X79.249 Y90.563
G1 F960 X105.935 Y117.249 E175.19664
G0 F4800 X106.501 Y117.249
G1 F960 X79.249 Y89.997 E176.92714
G0 F4800 X79.249 Y89.432
G1 F960 X107.067 Y117.249 E178.69355
G0 F4800 X107.632 Y117.249
G1 F960 X79.249 Y88.866 E180.49587
G0 F4800 X79.249 Y88.3
G1 F960 X108.198 Y117.249 E182.33412
G0 F4800 X108.764 Y117.249
G1 F960 X79.249 Y87.734 E184.20832
G0 F4800 X79.249 Y87.169
G1 F960 X109.33 Y117.249 E186.11843
G0 F4800 X109.895 Y117.249
G1 F960 X79.249 Y86.603 E188.06445
G0 F4800 X79.249 Y86.037
G1 F960 X110.461 Y117.249 E190.0464
G0 F4800 X111.027 Y117.249
G1 F960 X79.249 Y85.472 E192.06427
G0 F4800 X79.249 Y84.906
G1 F960 X111.592 Y117.249 E194.11805
G0 F4800 X112.158 Y117.249
G1 F960 X79.249 Y84.34 E196.20776
G0 F4800 X79.249 Y83.775
G1 F960 X112.724 Y117.249 E198.33339
G0 F4800 X113.289 Y117.249
G1 F960 X79.249 Y83.209 E200.49492
G0 F4800 X79.355 Y82.749
G1 F960 X113.855 Y117.249 E202.68567
G0 F4800 X114.421 Y117.249
G1 F960 X79.921 Y82.749 E204.87641
G0 F4800 X80.487 Y82.749
G1 F960 X114.986 Y117.249 E207.06713
G0 F4800 X115.552 Y117.249
G1 F960 X81.052 Y82.749 E209.25787
G0 F4800 X81.618 Y82.749
G1 F960 X116.118 Y117.249 E211.44862
G0 F4800 X116.683 Y117.249
